src/icons/icons_set_04/030-etoile-contour.svg

<svg height="50" viewBox="0 0 50 50" width="50" xmlns="http://www.w3.org/2000/svg"><path d="m44.2887635 11.8986204c.9374903.9882716 1.4636881 2.3011304 1.4636881 3.6699942 0 1.4571247-.5962412 2.8507895-1.5839851 3.7924066l-7.6542323 7.6529852 1.6791329 10.0727647c.4598434 1.401184.1537509 2.6431901-.4906321 3.9182523-.6893181 1.288335-1.8716954 2.2420011-3.2767664 2.6429293-1.3694114.3907531-2.836216.2238989-4.0812665-.4611673l-6.0421747-3.1583547-3.4657759-1.8510795-9.6654648 5.0684588c-1.27642183.6382109-2.57941527.9333828-4.08575425.3407519-2.60301902-.8244437-4.03647132-3.5713023-3.56804763-6.1289116l1.10078628-6.752618.68642363-3.8842038-7.70786476-7.478091c-.893604-.7968414-1.45061071-1.9044385-1.55779275-3.0963367-.30257433-2.5188332 1.16284977-4.9338697 3.56408863-5.8163473.28973573-.1064806.59082329-.1790651.89725135-.2163042l6.65059872-.80698002 4.12599798-.60579254 4.6931524-9.83047103c.047645-.09979902.0994081-.19757925.1551561-.29308864.892539-1.52912831 2.4779503-2.52361359 4.2431191-2.66159285.103709-.0081067.2076947-.01216468.3117201-.01216468h.1705905c2.0751689-.0795705 3.9917777 1.11310115 4.8379713 3.00733012l3.0009978 6.00030427 1.8352672 3.79560123 10.69288 1.54299274c1.1816492.1102969 2.2792691.6635287 3.0709351 1.5487325zm-5.7117233 5.59839c-.1179314-.1126562-.2288369-.2323954-.332105-.3585383.0491444.0591753.1072976.1243079.1677252.1868338.0520014.0594052.1068248.1167105.1643798.1717045zm-3.8557535-.0017177-7.8633452-1.1346882c-2.3435718-.3381797-3.4217145-2.0877234-3.4335647-3.8616831l-1.9131193-3.95671037-.637439-1.27435216-3.4706029 7.26966823c-1.0077203 2.1108126-2.9852172 2.633666-4.6780655 2.1365213l-4.51055502.6610773-1.06484307.1294067 5.15802589 5.0042636c.7279712.7062702 1.1604533 1.6627166 1.2099265 2.6757872.03923.8033176-.0333127 1.6079172-.2153292 2.3907693l-.7972182 4.5091458-.2617837 1.6063998 6.5764031-3.449081c.8752712-.4590475 1.8895015-.5777986 2.8471407-.3333573.8174712.2086628 1.6043102.5228272 2.2724367.8972786l4.0999909 2.1891523 1.4841611.7757558-1.2186842-7.3106303c-.1762808-1.0574713.0793038-2.1414463.7094241-3.0087807.4276152-.5885945.9070358-1.1377491 1.3704321-1.580134zm-23.3447549 21.4556123c.0068722-.0337474.0130632-.0675481.0185759-.1013828zm-7.40985439-23.7656614c.02555434.1546333.04199308.3106039.04924214.4671042-.00408484-.0771195-.01184199-.1639699-.02297885-.2500903-.0055599-.0721237-.0142825-.1445163-.02626329-.2170139zm.04944468.4773847c.00160282.0326742.0027207.0654252.00334893.0982436-.0006929-.0361963-.00187702-.0723743-.00355147-.1085241zm6.10078011-4.4240965c.0158606-.0370083.0208561-.0494263.0122969-.0254393-.0571602.1601899-.1073278.339994-.14621117.613678-.12130898.8538435-.01534305 1.7612219.65002667 2.7320935.8314531 1.2132113 2.0407151 1.7004197 3.1963817 1.7102571.4176732.0035553.6954991-.0461272.9665266-.1206819.0549004-.015102.062038-.0174102.0495679-.0131274-.1008167.0349919-.1905083.0659853-.2767574.0949315-.1547539.0519371-.3036644.0991757-.4613575.1453402-.2941403.0861092-.5936639.1608109-.9086262.223689l-.2020319.0349743-.2715677.0398016c-2.0896854-.6136852-3.74562556-2.7816355-2.6082479-5.4355166zm10.5632194-10.01943336v.11693872l.109128.06369707-.010437-.13351981zm.31172 2.77239643c.8497347-.06642184 1.6129359-.54515714 2.0425953-1.28126428l-2.2451873-1.31049636zm-.31172.01216467h.2750654c.1090477 0 .2180497-.00445926.3267329-.01336662-.2035615.0166833-.4050238.01184854-.6017983-.01288407zm7.3147919 4.43815322c.0712552.01017931.1029789.01422642.0800786.01219773-.0685163-.00606972-.147673-.01030466-.2506722-.01040895-.2233133-.00022612-.4599367.01848628-.743838.07708836-1.5080011.31127723-2.9069197 1.4991404-3.111991 3.4506742-.0672538.6400118.0186748 1.173726.183249 1.6583074.0773298.2276941.1586945.4040384.2459421.5642567.0548885.1007951.0681373.1215923.0771839.1350854-.0731513-.1082515-.1368743-.2032646-.2036935-.3058252-.247972-.3806116-.4729476-.7662005-.71802-1.2579335l-.1287756-.2663335c-.0148223-2.2188798 1.6385872-4.47595858 4.5705367-4.05710864z" transform="translate(4 5)"/></svg>

<?xml version="1.0" encoding="UTF-8"?>
<svg width="50px" height="50px" viewBox="0 0 50 50" version="1.1" xmlns="http://www.w3.org/2000/svg" xmlns:xlink="http://www.w3.org/1999/xlink">
    <!-- Generator: Sketch 52.4 (67378) - http://www.bohemiancoding.com/sketch -->
    <title>030-etoile-contour</title>
    <desc>Created with Sketch.</desc>
    <g id="030-etoile-contour" stroke="none" stroke-width="1" fill="none" fill-rule="evenodd">
        <g id="Group" transform="translate(4.000000, 5.000000)" fill="#000000" fill-rule="nonzero">
            <g id="088-etoile-pleine">
                <g id="ICONSET-01">
                    <g id="088-etoile-pleine">
                        <path d="M44.2887635,11.8986204 C45.2262538,12.886892 45.7524516,14.1997508 45.7524516,15.5686146 C45.7524516,17.0257393 45.1562104,18.4194041 44.1684665,19.3610212 L36.5142342,27.0140064 L38.1933671,37.0867711 C38.6532105,38.4879551 38.347118,39.7299612 37.702735,41.0050234 C37.0134169,42.2933584 35.8310396,43.2470245 34.4259686,43.6479527 C33.0565572,44.0387058 31.5897526,43.8718516 30.3447021,43.1867854 L24.3025274,40.0284307 L20.8367515,38.1773512 L11.1712867,43.24581 C9.89486487,43.8840209 8.59187143,44.1791928 7.08553245,43.5865619 C4.48251343,42.7621182 3.04906113,40.0152596 3.51748482,37.4576503 L4.6182711,30.7050323 L5.30469473,26.8208285 L-2.40317003,19.3427375 C-3.29677403,18.5458961 -3.85378074,17.438299 -3.96096278,16.2464008 C-4.26353711,13.7275676 -2.79811301,11.3125311 -0.396874147,10.4300535 C-0.107138418,10.3235729 0.193949142,10.2509884 0.5003772,10.2137493 L7.15097592,9.40676928 L11.2769739,8.80097674 L15.9701263,-1.02949429 C16.0177713,-1.12929331 16.0695344,-1.22707354 16.1252824,-1.32258293 C17.0178214,-2.85171124 18.6032327,-3.84619652 20.3684015,-3.98417578 C20.4721105,-3.99228248 20.5760962,-3.99634046 20.6801216,-3.99634046 L20.8507121,-3.99634046 C22.925881,-4.07591096 24.8424898,-2.88323931 25.6886834,-0.989010338 L28.6896812,5.01129393 L30.5249484,8.80689516 L41.2178284,10.3498879 C42.3994776,10.4601848 43.4970975,11.0134166 44.2887635,11.8986204 Z M38.5770402,17.4970104 C38.4591088,17.3843542 38.3482033,17.264615 38.2449352,17.1384721 C38.2940796,17.1976474 38.3522328,17.26278 38.4126604,17.3253059 C38.4646618,17.3847111 38.5194852,17.4420164 38.5770402,17.4970104 Z M34.7212867,17.4952927 L26.8579415,16.3606045 C24.5143697,16.0224248 23.436227,14.2728811 23.4243768,12.4989214 L21.5112575,8.54221103 L20.8738185,7.26785887 L17.4032156,14.5375271 C16.3954953,16.6483397 14.4179984,17.1711931 12.7251501,16.6740484 L8.21459508,17.3351257 L7.14975201,17.4645324 L12.3077779,22.468796 C13.0357491,23.1750662 13.4682312,24.1315126 13.5177044,25.1445832 C13.5569344,25.9479008 13.4843917,26.7525004 13.3023752,27.5353525 L12.505157,32.0444983 L12.2433733,33.6508981 L18.8197764,30.2018171 C19.6950476,29.7427696 20.7092779,29.6240185 21.6669171,29.8684598 C22.4843883,30.0771226 23.2712273,30.391287 23.9393538,30.7657384 L28.0393447,32.9548907 L29.5235058,33.7306465 L28.3048216,26.4200162 C28.1285408,25.3625449 28.3841254,24.2785699 29.0142457,23.4112355 C29.4418609,22.822641 29.9212815,22.2734864 30.3846778,21.8311015 L34.7212867,17.4952927 Z M11.3765318,38.950905 C11.383404,38.9171576 11.389595,38.8833569 11.3951077,38.8495222 L11.3765318,38.950905 Z M3.96667741,15.1852436 C3.99223175,15.3398769 4.00867049,15.4958475 4.01591955,15.6523478 C4.01183471,15.5752283 4.00407756,15.4883779 3.9929407,15.4022575 C3.9873808,15.3301338 3.9786582,15.2577412 3.96667741,15.1852436 Z M4.01612209,15.6626283 C4.01772491,15.6953025 4.01884279,15.7280535 4.01947102,15.7608719 C4.01877812,15.7246756 4.017594,15.6884976 4.01591955,15.6523478 L4.01612209,15.6626283 Z M10.1169022,11.2385318 C10.1327628,11.2015235 10.1377583,11.1891055 10.1291991,11.2130925 C10.0720389,11.3732824 10.0218713,11.5530865 9.98298793,11.8267705 C9.86167895,12.680614 9.96764488,13.5879924 10.6330146,14.558864 C11.4644677,15.7720753 12.6737297,16.2592837 13.8293963,16.2691211 C14.2470695,16.2726764 14.5248954,16.2229939 14.7959229,16.1484392 C14.8508233,16.1333372 14.8579609,16.131029 14.8454908,16.1353118 C14.7446741,16.1703037 14.6549825,16.2012971 14.5687334,16.2302433 C14.4139795,16.2821804 14.265069,16.329419 14.1073759,16.3755835 C13.8132356,16.4616927 13.513712,16.5363944 13.1987497,16.5992725 L12.9967178,16.6342468 L12.7251501,16.6740484 C10.6354647,16.0603632 8.97952454,13.8924129 10.1169022,11.2385318 Z M20.6801216,1.21909844 L20.6801216,1.33603716 L20.7892496,1.39973423 L20.7788126,1.26621442 L20.6801216,1.21909844 Z M20.9918416,3.99149487 C21.8415763,3.92507303 22.6047775,3.44633773 23.0344369,2.71023059 L20.7892496,1.39973423 L20.9918416,3.99149487 Z M20.6801216,4.00365954 L20.955187,4.00365954 C21.0642347,4.00365954 21.1732367,3.99920028 21.2819199,3.99029292 C21.0783584,4.00697622 20.8768961,4.00214146 20.6801216,3.97740885 L20.6801216,4.00365954 Z M27.9949135,8.44181276 C28.0661687,8.45199207 28.0978924,8.45603918 28.0749921,8.45401049 C28.0064758,8.44794077 27.9273191,8.44370583 27.8243199,8.44360154 C27.6010066,8.44337542 27.3643832,8.46208782 27.0804819,8.5206899 C25.5724808,8.83196713 24.1735622,10.0198303 23.9684909,11.9713641 C23.9012371,12.6113759 23.9871657,13.1450901 24.1517399,13.6296715 C24.2290697,13.8573656 24.3104344,14.0337099 24.397682,14.1939282 C24.4525705,14.2947233 24.4658193,14.3155205 24.4748659,14.3290136 C24.4017146,14.2207621 24.3379916,14.125749 24.2711724,14.0231884 C24.0232004,13.6425768 23.7982248,13.2569879 23.5531524,12.7652549 L23.4243768,12.4989214 C23.4095545,10.2800416 25.062964,8.02296282 27.9949135,8.44181276 Z" id="Shape"></path>
                    </g>
                </g>
            </g>
        </g>
    </g>
</svg>
